!!!OTL: "Raethsellied" ES RITT EINMAL EIN RITTER
!!!ARE: Europa, Mitteleuropa, Deutschland, Schwaben
!!!SCT: Z1317
!!!YEM: Copyright 1995, estate of Helmut Schaffrath.
**kern
*ICvox
*Ivox
*M2/4
*k[b-]
*F:
{8c
=1
8f
8e
8f
8g
=2
4f
8c
8c
=3
8a
8g
8a
8b-
=4
4a
8r}
{8g
=5
8a
8g
8a
8b-
=6
4cc
8b-
8a
=7
8g
8f
8g
8a
=8
4f
8r}
{8cc
=9
4cc
4cc
=10
4dd
4dd
=11
4ee
4ee
=12
4ff
8r}
{8cc
=13
4cc
4cc
=14
4dd
8cc
8b-
=15
4a
4g
=16
4f
8r}
==
!!!AGN: Zech -, Schalks - Lied
!!!ONB: ESAC (Essen Associative Code) Database: ZUCCAL
!!!AMT: simple duple
!!!AIN: vox
!!!EED: Helmut Schaffrath
!!!EEV: 1.0
*-
